lib/logo_tmp/nrk-logo-nrk-radio-with-bg.svg

<svg width="110" height="28" viewBox="0 0 110 28" fill="none" xmlns="http://www.w3.org/2000/svg">
<rect width="109.333" height="28" fill="#0A2343"/>
<path d="M6.66663 21V7.00123H11.26V21H6.66663ZM17.5094 9.2292L20.151 21H15.124L11.9697 7.00123H14.7892C15.4357 6.99284 16.063 7.22075 16.5535 7.64208C17.0449 8.04574 17.3824 8.60611 17.5094 9.2292ZM20.8411 21V7.00123H25.4345V21H20.8411ZM28.9038 12.3247C28.4089 12.3296 27.9218 12.2001 27.4946 11.9501C27.073 11.7064 26.7229 11.3562 26.4793 10.9347C26.229 10.5073 26.0995 10.0202 26.1044 9.525C26.0988 9.03283 26.2284 8.54857 26.4793 8.12512C26.7255 7.70811 27.0752 7.36174 27.4946 7.11957C27.922 6.86988 28.4089 6.74039 28.9038 6.74491C29.3959 6.73961 29.8799 6.86921 30.3035 7.11957C30.7187 7.36386 31.0647 7.70995 31.309 8.12512C31.5596 8.54869 31.6892 9.03287 31.6838 9.525C31.6884 10.0201 31.5589 10.5072 31.309 10.9347C31.0673 11.3544 30.7209 11.7043 30.3035 11.9501C29.8799 12.2009 29.3955 12.3306 28.9032 12.3247H28.9038ZM32.3935 21V7.00123H36.9873V21H32.3935ZM42.8027 14.6512C42.8156 14.6648 42.9141 14.8258 43.0983 15.1343C43.2826 15.4427 43.5224 15.8371 43.8179 16.3173C44.1136 16.7973 44.4257 17.3066 44.754 17.8453C45.0824 18.384 45.3913 18.8934 45.6809 19.3734C45.9694 19.8534 46.298 20.3955 46.6666 21H41.6198C41.3041 20.4873 41.0181 20.024 40.7618 19.61C40.5056 19.1959 40.2331 18.749 39.9444 18.2692C39.6551 17.7899 39.369 17.3233 39.0862 16.8693C38.8034 16.4154 38.5604 16.0178 38.3571 15.6765C38.153 15.335 38.0116 15.1049 37.9329 14.9864C37.7379 14.6923 37.6225 14.3526 37.5981 14.0006C37.6176 13.6627 37.7263 13.3361 37.9132 13.0539C37.992 12.9225 38.1366 12.6891 38.3469 12.3539C38.5572 12.0188 38.8036 11.6212 39.0862 11.1611C39.3688 10.7011 39.6549 10.2312 39.9444 9.7514C40.234 9.27163 40.5064 8.8214 40.7618 8.40078C41.0186 7.9806 41.3046 7.51398 41.6198 7.00091H46.6666L42.7629 13.3694C42.6421 13.5585 42.574 13.7764 42.5657 14.0006C42.5787 14.236 42.6609 14.4623 42.8019 14.6512H42.8027Z" fill="white"/>
<path d="M58.8637 15.2146C59.126 15.1745 59.3848 15.1141 59.6377 15.0339C60.1503 14.8745 60.6237 14.6093 61.0273 14.2554C61.4293 13.8964 61.7458 13.4519 61.9536 12.9545C62.1872 12.3825 62.3013 11.7688 62.2887 11.151C62.2975 10.4305 62.1461 9.71689 61.8453 9.06204C61.5345 8.41515 61.0228 7.88617 60.3867 7.55393C59.5379 7.14168 58.5994 6.94849 57.6568 6.99212H52V20.9865H54.0499V15.6252H57.0652L60.5542 20.9865H62.9586L59.6867 16.138L58.8637 15.2146ZM58.8986 8.97302C59.3068 9.12863 59.6481 9.42142 59.8641 9.80118C60.0898 10.2425 60.1984 10.7345 60.1794 11.2299C60.204 11.7782 60.0707 12.322 59.7954 12.7969C59.5348 13.2012 59.1461 13.5065 58.6916 13.6641C58.1434 13.8526 57.5662 13.9427 56.9867 13.9302H54.0499V8.70691H57.2229C57.7933 8.68792 58.3621 8.77826 58.8986 8.97302Z" fill="#8BB5EB"/>
<path d="M73.5824 19.745C73.4383 19.7582 73.2931 19.7365 73.1593 19.6815C73.0254 19.6265 72.9069 19.54 72.8137 19.4293C72.6309 19.1135 72.5549 18.7472 72.5969 18.3847L72.6363 14.3247C72.6406 13.8989 72.5876 13.4745 72.4786 13.0629C72.3827 12.7021 72.2225 12.3616 72.0056 12.0577C71.7862 11.7607 71.5077 11.5124 71.1876 11.3284C70.8157 11.1173 70.4134 10.9644 69.9951 10.8754C69.4836 10.7649 68.9613 10.712 68.438 10.7177C68.0228 10.7174 67.6081 10.7437 67.1962 10.7962C66.8071 10.8452 66.4219 10.9209 66.0432 11.0229C65.692 11.1183 65.3465 11.2336 65.0084 11.3681L64.7719 13.0435C65.1004 12.9253 65.4126 12.8267 65.7085 12.7478C66.0044 12.669 66.29 12.6034 66.5655 12.5508C66.8359 12.4991 67.109 12.4629 67.3835 12.4427C67.6527 12.4225 67.9187 12.4125 68.1818 12.4128C68.5837 12.4043 68.9849 12.4508 69.3743 12.5508C69.6583 12.6219 69.9195 12.7644 70.1331 12.9647C70.3232 13.1596 70.4591 13.4008 70.5273 13.6644C70.6114 13.9894 70.6511 14.3244 70.6455 14.6601L70.6433 15.1545L68.3394 15.3105C67.5514 15.3326 66.7751 15.5065 66.053 15.8227C65.5127 16.0592 65.0463 16.4371 64.7029 16.9166C64.4116 17.3434 64.2569 17.8486 64.2594 18.3653C64.2557 18.8501 64.3744 19.3281 64.6044 19.7549C64.8454 20.1934 65.2082 20.5528 65.649 20.7896C66.1867 21.0693 66.7876 21.2052 67.3934 21.1839C67.9609 21.197 68.5259 21.1033 69.0589 20.9079C69.5198 20.7277 69.9415 20.46 70.3007 20.1196C70.437 19.9887 70.5663 19.8509 70.6883 19.7066C70.7267 19.9106 70.7988 20.1068 70.9018 20.2871C71.0773 20.5889 71.3476 20.8244 71.6705 20.9572C72.0274 21.1005 72.4094 21.171 72.794 21.1642C72.9122 21.1642 73.0272 21.1609 73.1389 21.1543C73.2486 21.148 73.3575 21.1316 73.4641 21.1051C73.5693 21.0788 73.6642 21.0557 73.75 21.036C73.8272 21.0188 73.9029 20.9958 73.9766 20.967L74.1934 19.6464C74.0846 19.6838 73.9724 19.7102 73.8583 19.7253C73.7668 19.7376 73.6747 19.7442 73.5824 19.745ZM70.3007 18.8581C70.087 19.027 69.8557 19.1724 69.6108 19.2917C69.367 19.4104 69.1086 19.4966 68.8424 19.548C68.5662 19.6013 68.2857 19.6277 68.0044 19.6268C67.6832 19.636 67.3638 19.5754 67.0682 19.4494C66.8276 19.3451 66.6247 19.1697 66.4867 18.9468C66.3502 18.7105 66.2819 18.4409 66.2896 18.1682C66.2706 17.8396 66.3607 17.514 66.5458 17.2418C66.7605 16.9916 67.0513 16.8185 67.3736 16.7491C67.8773 16.6306 68.3942 16.5776 68.9114 16.5914H70.637L70.6281 18.5479C70.528 18.6603 70.4185 18.7643 70.3007 18.8581Z" fill="#8BB5EB"/>
<path d="M82.9063 11.196C82.8862 11.1881 82.8675 11.1786 82.8472 11.1707C82.4788 11.0319 82.0998 10.9232 81.7139 10.8454C81.2627 10.7566 80.8038 10.7138 80.344 10.7177C79.4829 10.7124 78.6359 10.9369 77.8904 11.3681C77.1208 11.8156 76.4899 12.467 76.0672 13.2504C75.582 14.1761 75.3444 15.2114 75.3773 16.256C75.3547 17.1578 75.5332 18.0532 75.8997 18.8775C76.2195 19.5814 76.7409 20.1748 77.398 20.5824C78.1044 20.9983 78.9138 21.2067 79.7333 21.1836C80.236 21.1866 80.7368 21.1202 81.2214 20.9864C81.7044 20.8479 82.1655 20.6422 82.5913 20.3754C82.7388 20.2844 82.887 20.1823 83.0341 20.0755L83.2815 20.9864H84.9171V6.12488L82.9066 6.40085L82.9063 11.196ZM81.8518 19.3012C81.4024 19.4783 80.9254 19.5751 80.4425 19.5873C79.8793 19.6037 79.3217 19.471 78.8263 19.2027C78.3653 18.9301 78.0056 18.515 77.8014 18.02C77.5457 17.3849 77.4248 16.7034 77.4466 16.0191C77.4235 15.3181 77.5582 14.621 77.8408 13.9791C78.0815 13.4582 78.4773 13.0245 78.9741 12.7373C79.5146 12.4431 80.1233 12.2969 80.7385 12.3135C81.0551 12.3128 81.3712 12.3359 81.6843 12.3826C81.995 12.4307 82.3015 12.5033 82.6008 12.5997C82.697 12.6302 82.8031 12.671 82.9063 12.7084V18.7831C82.571 18.9876 82.2177 19.161 81.8508 19.3012H81.8518Z" fill="#8BB5EB"/>
<path d="M87.9906 20.9864H90.0011V10.7371L87.9906 11.0327V20.9864Z" fill="#8BB5EB"/>
<path d="M89.7153 6.60777C89.5107 6.48273 89.275 6.41782 89.0352 6.4205C88.7925 6.4186 88.5539 6.48339 88.3454 6.60777C88.1399 6.72815 87.9672 6.89741 87.8428 7.10053C87.7178 7.30513 87.6529 7.54081 87.6555 7.78055C87.6536 8.02332 87.7184 8.26191 87.8428 8.47037C87.9632 8.67666 88.1368 8.84684 88.3454 8.96312C88.5559 9.08152 88.7937 9.14269 89.0352 9.14053C89.2737 9.14345 89.5086 9.08216 89.7153 8.96312C89.9181 8.84595 90.0851 8.67555 90.1981 8.47037C90.3166 8.2599 90.3778 8.02207 90.3755 7.78055C90.3784 7.54209 90.3171 7.30721 90.1981 7.10053C90.0811 6.89837 89.915 6.72892 89.7153 6.60777Z" fill="#8BB5EB"/>
<path d="M101.985 13.1319C101.592 12.3784 100.985 11.7577 100.241 11.3481C99.4192 10.912 98.4994 10.6949 97.5698 10.7177C96.6315 10.6962 95.7038 10.9204 94.879 11.3682C94.1176 11.7942 93.4949 12.4305 93.0854 13.2009C92.6405 14.0654 92.4203 15.0279 92.4448 15.9998C92.4197 16.9641 92.6258 17.9204 93.046 18.7888C93.4235 19.5469 94.0258 20.1699 94.7706 20.5729C95.5724 20.9928 96.4675 21.2029 97.3724 21.1836C98.3197 21.2024 99.2561 20.9785 100.092 20.5331C100.873 20.1072 101.514 19.4635 101.936 18.6804C102.393 17.8057 102.621 16.8289 102.596 15.8421C102.618 14.9022 102.408 13.9713 101.985 13.1319ZM100.122 17.9511C99.9006 18.4633 99.5253 18.8939 99.0481 19.183C98.5686 19.4575 98.0237 19.5972 97.4713 19.5874C96.9295 19.6008 96.3954 19.4569 95.9338 19.1731C95.4771 18.8696 95.1205 18.4376 94.9089 17.9317C94.6407 17.2824 94.5132 16.5836 94.5348 15.8815C94.5114 15.1985 94.6391 14.5187 94.9089 13.8907C95.1301 13.3972 95.4984 12.9842 95.9634 12.7082C96.4607 12.4345 97.022 12.2984 97.5895 12.314C98.0325 12.3029 98.4728 12.3869 98.8806 12.5603C99.2377 12.7215 99.5493 12.9687 99.7875 13.2798C100.041 13.618 100.226 14.0033 100.329 14.4134C100.453 14.8929 100.512 15.3865 100.507 15.8815C100.53 16.5911 100.398 17.2972 100.122 17.9511Z" fill="#8BB5EB"/>
</svg>

<svg xmlns="http://www.w3.org/2000/svg" viewBox="0 0 110 28"><path fill="#0A2343" d="M0 0h109.333v28H0z"/><path fill="#fff" d="M6.667 21V7.001h4.593V21H6.667ZM17.509 9.23 20.151 21h-5.027L11.97 7.001h2.82a2.655 2.655 0 0 1 1.764.641c.49.404.828.964.955 1.587ZM20.841 21V7.001h4.593V21h-4.593Zm8.063-8.675a2.779 2.779 0 0 1-2.425-1.39 2.736 2.736 0 0 1-.375-1.41 2.686 2.686 0 0 1 .375-1.4 2.812 2.812 0 0 1 3.825-1.005c.415.244.76.59 1.005 1.005.25.424.38.908.375 1.4.004.495-.125.982-.375 1.41a2.8 2.8 0 0 1-1.006 1.015c-.423.25-.908.38-1.4.375ZM32.394 21V7.001h4.593V21h-4.593Zm10.409-6.349c.013.014.111.175.295.483.185.309.424.703.72 1.183a373.133 373.133 0 0 1 1.863 3.056c.288.48.617 1.022.986 1.627H41.62l-.858-1.39a127.3 127.3 0 0 1-.818-1.34c-.289-.48-.575-.947-.858-1.4a71.148 71.148 0 0 1-.729-1.194 20.758 20.758 0 0 0-.424-.69 2.04 2.04 0 0 1-.335-.985c.02-.338.128-.665.315-.947.079-.132.224-.365.434-.7a206.222 206.222 0 0 0 1.598-2.602c.289-.48.561-.93.817-1.351L41.62 7h5.047l-3.904 6.368c-.12.19-.189.407-.197.632.013.235.095.461.236.65Z"/><path fill="#8BB5EB" d="M58.864 15.215c.262-.04.52-.1.774-.181.512-.16.986-.425 1.39-.779a3.61 3.61 0 0 0 .926-1.3 4.526 4.526 0 0 0 .335-1.804 4.862 4.862 0 0 0-.444-2.089 3.327 3.327 0 0 0-1.458-1.508 5.65 5.65 0 0 0-2.73-.562H52v13.994h2.05v-5.36h3.015l3.49 5.36h2.404l-3.272-4.848-.823-.923Zm.035-6.242c.408.156.75.448.965.828.226.441.334.934.315 1.429a2.868 2.868 0 0 1-.384 1.567c-.26.404-.649.71-1.103.867a4.917 4.917 0 0 1-1.705.266H54.05V8.707h3.173c.57-.02 1.14.071 1.676.266ZM73.582 19.745a.898.898 0 0 1-.768-.316 1.695 1.695 0 0 1-.217-1.044l.04-4.06a4.742 4.742 0 0 0-.158-1.262 3.102 3.102 0 0 0-.473-1.005 2.673 2.673 0 0 0-.818-.73 4.177 4.177 0 0 0-1.193-.453 7.012 7.012 0 0 0-1.557-.157c-.415 0-.83.026-1.242.078-.389.05-.774.125-1.153.227-.351.095-.697.21-1.035.345l-.236 1.675a11.617 11.617 0 0 1 1.793-.492 7.15 7.15 0 0 1 .819-.108c.269-.02.535-.03.798-.03.402-.009.803.038 1.192.138.284.07.546.213.76.414.19.195.325.436.393.7.084.324.124.66.118.995l-.002.495-2.304.155a6.128 6.128 0 0 0-2.286.513 3.277 3.277 0 0 0-1.35 1.094 2.548 2.548 0 0 0-.444 1.448c-.003.485.115.963.345 1.39.241.438.604.798 1.045 1.035.538.28 1.139.415 1.744.394a4.535 4.535 0 0 0 1.666-.276c.46-.18.883-.448 1.242-.788a5.46 5.46 0 0 0 .387-.413c.039.204.11.4.214.58.175.302.446.537.769.67.356.143.738.214 1.123.207.118 0 .233-.003.345-.01.11-.006.219-.022.325-.049.105-.026.2-.05.286-.069.077-.017.153-.04.227-.069l.216-1.32a1.728 1.728 0 0 1-.335.078 2.214 2.214 0 0 1-.276.02Zm-3.281-.887a3.788 3.788 0 0 1-.69.434 3.097 3.097 0 0 1-.769.256c-.276.053-.556.08-.838.079-.32.009-.64-.052-.936-.178a1.285 1.285 0 0 1-.581-.502 1.474 1.474 0 0 1-.197-.779 1.494 1.494 0 0 1 .256-.926 1.51 1.51 0 0 1 .828-.493 6.015 6.015 0 0 1 1.537-.158h1.726l-.009 1.957c-.1.112-.21.216-.327.31ZM82.906 11.196l-.059-.025a6.795 6.795 0 0 0-2.503-.453 4.841 4.841 0 0 0-2.454.65 4.831 4.831 0 0 0-1.823 1.882 6.063 6.063 0 0 0-.69 3.006 6.078 6.078 0 0 0 .523 2.622c.32.703.84 1.297 1.498 1.704a4.36 4.36 0 0 0 2.335.602 5.469 5.469 0 0 0 1.488-.198 5.365 5.365 0 0 0 1.37-.61c.148-.092.296-.194.443-.3l.247.91h1.636V6.125l-2.01.276v4.795Zm-1.054 8.105c-.45.177-.927.274-1.41.286a3.198 3.198 0 0 1-1.616-.384 2.467 2.467 0 0 1-1.025-1.183 4.937 4.937 0 0 1-.354-2 4.68 4.68 0 0 1 .394-2.04c.24-.522.636-.956 1.133-1.243.54-.294 1.15-.44 1.764-.424a5.968 5.968 0 0 1 1.862.286c.097.031.203.072.306.11v6.074a6.446 6.446 0 0 1-1.055.518ZM87.99 20.986h2.011V10.737l-2.01.296v9.953ZM89.715 6.608a1.277 1.277 0 0 0-.68-.188 1.326 1.326 0 0 0-.69.188c-.205.12-.378.29-.502.493-.125.204-.19.44-.188.68-.001.242.063.48.188.69.12.206.294.376.502.492.21.119.449.18.69.178a1.33 1.33 0 0 0 .68-.178c.203-.117.37-.287.483-.493.119-.21.18-.448.178-.69a1.33 1.33 0 0 0-.178-.68 1.392 1.392 0 0 0-.483-.492ZM101.985 13.132a4.314 4.314 0 0 0-1.744-1.784 5.415 5.415 0 0 0-2.671-.63 5.381 5.381 0 0 0-2.691.65 4.544 4.544 0 0 0-1.794 1.833 5.797 5.797 0 0 0-.64 2.799c-.025.964.18 1.92.601 2.789.377.758.98 1.38 1.725 1.784.801.42 1.697.63 2.601.61a5.55 5.55 0 0 0 2.72-.65 4.592 4.592 0 0 0 1.844-1.853 5.813 5.813 0 0 0 .66-2.838 5.725 5.725 0 0 0-.611-2.71Zm-1.863 4.82a2.687 2.687 0 0 1-1.074 1.231 3.065 3.065 0 0 1-1.577.404 2.803 2.803 0 0 1-1.537-.414 2.777 2.777 0 0 1-1.025-1.241 4.97 4.97 0 0 1-.374-2.05 4.64 4.64 0 0 1 .374-1.991c.221-.494.59-.907 1.054-1.183a3.19 3.19 0 0 1 1.627-.394c.442-.011.883.073 1.29.246.358.162.67.409.907.72.254.338.439.723.542 1.133.124.48.183.973.178 1.469a4.914 4.914 0 0 1-.385 2.07Z"/></svg>
